icons/volume-down-line.svg

<svg xmlns="http://www.w3.org/2000/svg" width="24" height="24" fill="none"><g clip-path="url(#a)"><g><path fill="#121212" d="M13 7.22001L9.603 10H6V14H9.603L13 16.78V7.22001ZM8.889 16H5C4.73478 16 4.48043 15.8946 4.29289 15.7071C4.10536 15.5196 4 15.2652 4 15V9.00001C4 8.73479 4.10536 8.48044 4.29289 8.2929C4.48043 8.10536 4.73478 8.00001 5 8.00001H8.889L14.183 3.66801C14.2563 3.60795 14.3451 3.56994 14.4391 3.5584C14.5331 3.54686 14.6284 3.56226 14.714 3.6028C14.7996 3.64335 14.872 3.70738 14.9226 3.78744C14.9732 3.8675 15.0001 3.96029 15 4.05501V19.945C15.0001 20.0397 14.9732 20.1325 14.9226 20.2126C14.872 20.2926 14.7996 20.3567 14.714 20.3972C14.6284 20.4378 14.5331 20.4532 14.4391 20.4416C14.3451 20.4301 14.2563 20.3921 14.183 20.332L8.89 16H8.889ZM18.863 16.591L17.441 15.169C17.9265 14.7957 18.3196 14.3157 18.5899 13.7662C18.8602 13.2167 19.0006 12.6124 19 12C19 10.57 18.25 9.31501 17.12 8.60801L18.559 7.16901C19.3165 7.7262 19.9321 8.45386 20.3562 9.29312C20.7802 10.1324 21.0008 11.0597 21 12C21 13.842 20.17 15.49 18.863 16.591Z"/></g></g><defs><clipPath id="a"><rect width="24" height="24" fill="white"/></clipPath></defs></svg>

<svg width="24" height="24" fill="none" xmlns="http://www.w3.org/2000/svg"><g clip-path="url(#a)"><path d="M13 7.22 9.603 10H6v4h3.603L13 16.78V7.22ZM8.889 16H5a1 1 0 0 1-1-1V9a1 1 0 0 1 1-1h3.889l5.294-4.332a.5.5 0 0 1 .817.387v15.89a.5.5 0 0 1-.817.387L8.89 16h-.001Zm9.974.591-1.422-1.422A3.993 3.993 0 0 0 19 12c0-1.43-.75-2.685-1.88-3.392l1.439-1.439A5.991 5.991 0 0 1 21 12c0 1.842-.83 3.49-2.137 4.591Z" /></g><defs><clipPath id="a"><path fill="#fff" d="M0 0h24v24H0z"/></clipPath></defs></svg>
